!! 00049] TT[KA
!! NN
!!!OTL: Jiaocheng shan
!!!ARE: Asia, China, Shanxi, Jiaocheng
!! Ethnic Group: Han
!! I, 312 (1)
!!!SCT: C0079
!!!YEM: Copyright 1995, estate of Helmut Schaffrath.
**kern
*ICvox
*Ivox
*M2/4
*k[f#c#g#]
*A:
{8ee
8ee
8dd
8cc#
=1
8ff#
8cc#
4b}
=2
{8ee
8b
8cc#
8ee
=3
8ee
8a
8g#
8f#}
=4
{8ee
8g#
8b
8cc#
=5
8ee
8a
8g#
8f#}
=6
{8.e
16f#
8b
8a
=7
2e}
==
!!!AGN: Xiaodiao, Tanzlied
!! sehr traditionelle Melodie. Diese Region bildet, v.a. durch ein
!!    Gebirge, einen Zwischenraum zwischen Nord- und Suedstil.
!!!ONB: ESAC (Essen Associative Code) Database: CHINA_001
!!!AMT: simple duple
!!!AIN: vox
!!!EED: Helmut Schaffrath
!!!EEV: 1.0
*-
